X:1
T:Title
%%score { 1 | 2 }
L:1/8
Q:1/4=100
M:4/4
K:Bb
V:1 treble nm="Grand Piano"
V:2 bass 
V:1
 [DF]2 [DB]2 [Fd]>[Ec] [DB]>[B,EG] | [DF]4 [DB]2 z2 | c>B A>B c2 d>c | [DB]4 [DF]2 z2 | %4
w: A.~B.~Everett * * * * *||||
 [DF]2 [DB]2 [Fd]>[Ec] [DB]>[EG] | [DF]4 [DB]2 z2 | c>B A>B c2 d>c | c4 [DB]2 z2 | %8
w: ||||
 [Ge]2 [Ge]2 [EG]>[FA] [GB]>[Gc] | [Fd]4 [DB]2 z2 | [DF]2 [DB]2 B>B A>B | c6 z2 | %12
w: ||||
 [Fd]2 [Fd]2 [Fe]>[Fd] [Fc]>[FB] | B4 G2 z2 | F2 B2 d>c B>A | [DB]6 z2 | %16
w: ||||
 [Ge]2 [Ge]2 [EG]>[FA] [GB]>[Gc] | [Fd]4 [DB]2 z2 | [DF]2 [DB]2 B>B A>B | c6 z2 | %20
w: ||||
 [Fd]2 [Fd]2 [Fe]>[Fd] [Fc]>[FB] | B4 G2 z2 | F2 B2 d>c B>A | [DB]6 z2 |] %24
w: ||||
V:2
 [B,,B,]2 [B,,F,]2 [B,,B,]>[B,,F,] [B,,F,]>A,, | [B,,B,]4 [B,,B,]2 z2 | %2
 [F,A,E]>[F,B,D] [F,C]>[F,B,D] [F,A,E]2 [F,B,F]>[F,A,E] | [B,,B,]4 [B,,B,]2 z2 | %4
 [B,,B,]2 [B,,F,]2 [B,,B,]>[B,,F,] [B,,F,]>[B,,B,] | [B,,B,]4 [B,,B,]2 z2 | %6
 [F,A,E]>[F,B,D] [F,C]>[F,B,D] [F,A,E]2 [F,B,F]>[F,A,E] | [F,A,E]4 [B,,B,]2 z2 | %8
 [E,B,]2 [E,B,]2 [E,B,]>[E,B,] [E,B,]>[E,B,] | [B,,B,]4 [B,,F,]2 z2 | %10
 [B,,B,]2 [B,,B,]2 [G,B,D]>[G,B,D] [G,B,D]>[G,B,D] | [F,A,F]6 z2 | %12
 [B,,B,]2 [B,,B,]2 [A,,C]>[B,,B,] [C,A,]>[D,B,] | [E,G,E]4 [E,B,E]2 z2 | %14
 [F,B,D]2 [F,B,D]2 [F,B,F]>[F,A,F] [F,DF]>[F,CE] | [B,,B,]6 z2 | %16
 [E,B,]2 [E,B,]2 [E,B,]>[E,B,] [E,B,]>[E,B,] | [B,,B,]4 [B,,F,]2 z2 | %18
 [B,,B,]2 [B,,B,]2 [G,B,D]>[G,B,D] [G,B,D]>[G,B,D] | [F,A,F]6 z2 | %20
 [B,,B,]2 [B,,B,]2 [A,,C]>[B,,B,] [C,A,]>[D,B,] | [E,G,E]4 [E,B,E]2 z2 | %22
 [F,B,D]2 [F,B,D]2 [F,B,F]>[F,A,F] [F,DF]>[F,CE] | [B,,B,]6 z2 |] %24

